icons/bhi_star-o.svg

<svg xmlns="http://www.w3.org/2000/svg" viewBox="0 0 512 512" enable-background="new 0 0 512 512"><path fill="#010101" d="M255 109.9l37.5 80.1 10.7 22.9 24 3.7 83.8 12.8-60.6 62.4-17.4 18 4.1 25.2 14.3 88.1-74.9-41.6-21.5-11.9-21.5 11.9-74.9 41.6 14.3-88.1 4.1-25.2-17.4-17.9-60.6-62.4 83.8-12.8 24-3.7 10.7-22.9 37.5-80.2m0-109.9l-78.8 168.5-176.2 27.1 127.5 131.2-30.1 185.2 157.6-87.5 157.7 87.5-30.1-185.2 127.5-131.2-176.2-27-78.9-168.6z"/></svg>

<?xml version="1.0" encoding="utf-8"?>
<!-- Generator: Adobe Illustrator 19.2.0, SVG Export Plug-In . SVG Version: 6.00 Build 0)  -->
<svg version="1.1" id="Layer_1" xmlns="http://www.w3.org/2000/svg" xmlns:xlink="http://www.w3.org/1999/xlink" x="0px" y="0px"
	 viewBox="0 0 512 512" enable-background="new 0 0 512 512" xml:space="preserve">
<path fill="#010101" d="M255,109.9l37.5,80.1l10.7,22.9l24,3.7l83.8,12.8l-60.6,62.4L333,309.8l4.1,25.2l14.3,88.1l-74.9-41.6
	L255,369.6l-21.5,11.9l-74.9,41.6l14.3-88.1l4.1-25.2l-17.4-17.9l-60.6-62.4l83.8-12.8l24-3.7l10.7-22.9L255,109.9 M255,0
	l-78.8,168.5L0,195.6l127.5,131.2L97.4,512L255,424.5L412.7,512l-30.1-185.2l127.5-131.2l-176.2-27L255,0L255,0z"/>
</svg>
